web/static/js/app/icons/settings-gear.svg

<?xml version="1.0" encoding="UTF-8"?>
<svg width="18px" height="18px" viewBox="0 0 18 18" version="1.1" xmlns="http://www.w3.org/2000/svg" xmlns:xlink="http://www.w3.org/1999/xlink">
    <title>settings-gear</title>
    <defs></defs>
    <g id="Symbols" stroke="none" stroke-width="1" fill="none" fill-rule="evenodd">
        <g id="settings-gear" fill-rule="nonzero">
            <path d="M8.00263009,14.2149892 C8.62139935,13.664157 9.56954866,13.7192308 10.1203809,14.3380001 L10.6095283,14.8874767 C10.6621212,14.9465562 10.73501,14.9836949 10.8137197,14.9915174 C10.9868909,15.0087279 11.1412257,14.8822968 11.1584362,14.7091257 L11.2311906,13.9770761 C11.2369303,13.9193239 11.2460168,13.8619535 11.2584045,13.8052542 C11.4352283,12.9959181 12.2346688,12.4831656 13.0440049,12.6599895 L13.7627077,12.8170117 C13.8399823,12.8338947 13.9207802,12.8210975 13.9890556,12.7811617 C14.1392701,12.6932979 14.1898153,12.5002972 14.1019515,12.3500827 L13.7305231,11.7150783 C13.7012206,11.664982 13.6748503,11.6132274 13.6515452,11.5600754 C13.3188828,10.8013744 13.6642555,9.91664956 14.4229565,9.58398723 L15.0966946,9.288578 C15.1691347,9.25681572 15.2269796,9.19897082 15.2587419,9.12653077 C15.3286229,8.96715354 15.2560719,8.78130302 15.0966946,8.711422 L14.4229565,8.41601277 C14.3698045,8.39270759 14.3180499,8.36633729 14.2679537,8.33703488 C13.5528709,7.91876685 13.312255,7.0000045 13.7305231,6.28492174 L14.1019515,5.64991731 C14.1418873,5.5816419 14.1546844,5.50084401 14.1378015,5.42356938 C14.1006568,5.25355546 13.9327216,5.14584364 13.7627077,5.1829883 L13.0440049,5.34001055 C12.9873056,5.35239821 12.9299352,5.3614848 12.8721829,5.36722447 C12.047817,5.44915363 11.3131197,4.84728974 11.2311906,4.02292386 L11.1584362,3.29087435 C11.1506137,3.21216469 11.113475,3.13927585 11.0543955,3.08668293 C10.9244132,2.97097186 10.7252393,2.982541 10.6095283,3.11252333 L10.1203809,3.6619999 C10.0817915,3.70534874 10.0407187,3.74642144 9.99736991,3.78501084 C9.37860065,4.33584304 8.43045134,4.28076916 7.87961914,3.6619999 L7.39047174,3.11252333 C7.33787881,3.05344384 7.26498998,3.01630513 7.18628032,3.00848261 C7.01310914,2.99127209 6.85877428,3.11770317 6.84156376,3.29087435 L6.76880942,4.02292386 C6.76306974,4.08067609 6.75398316,4.13804653 6.74159549,4.19474582 C6.56477168,5.00408187 5.76533116,5.51683435 4.95599511,5.34001055 L4.23729233,5.1829883 C4.1600177,5.16610533 4.07921981,5.17890246 4.01094439,5.21883829 C3.86072988,5.30670215 3.81018468,5.4997028 3.89804854,5.64991731 L4.26947694,6.28492174 C4.29877936,6.33501797 4.32514966,6.3867726 4.34845483,6.43992457 C4.68111716,7.19862562 4.33574454,8.08335044 3.57704349,8.41601277 L2.90330537,8.711422 C2.83086532,8.74318428 2.77302042,8.80102918 2.74125814,8.87346923 C2.67137712,9.03284646 2.74392814,9.21869698 2.90330537,9.288578 L3.57704349,9.58398723 C3.63019547,9.60729241 3.6819501,9.63366271 3.73204633,9.66296512 C4.44712909,10.0812332 4.68774497,10.9999955 4.26947694,11.7150783 L3.89804854,12.3500827 C3.85811271,12.4183581 3.84531558,12.499156 3.86219855,12.5764306 C3.8993432,12.7464445 4.06727841,12.8541564 4.23729233,12.8170117 L4.95599511,12.6599895 C5.0126944,12.6476018 5.07006485,12.6385152 5.12781708,12.6327755 C5.95218296,12.5508464 6.68688026,13.1527103 6.76880942,13.9770761 L6.84156376,14.7091257 C6.84938628,14.7878353 6.88652499,14.8607241 6.94560449,14.9133171 C7.07558682,15.0290281 7.27476067,15.017459 7.39047174,14.8874767 L7.87961914,14.3380001 C7.91820855,14.2946513 7.95928125,14.2535786 8.00263009,14.2149892 Z M8.13739231,15.5523899 C7.65445978,16.0948851 6.82318638,16.1431702 6.28069121,15.6602376 C6.03411663,15.4407354 5.87911422,15.1365261 5.84646611,14.8080229 L5.77371176,14.0759734 C5.74640205,13.8011848 5.50150295,13.6005635 5.22671432,13.6278732 C5.20746358,13.6297864 5.18834009,13.6328153 5.16944033,13.6369445 L4.45073754,13.7939667 C3.74116626,13.9489939 3.04027071,13.4994471 2.88524351,12.7898758 C2.81478065,12.4673619 2.86819083,12.1301433 3.03486729,11.8451885 L3.40629569,11.2101841 C3.54571837,10.9718232 3.46551307,10.6655691 3.22715215,10.5261464 C3.21045341,10.5163789 3.19320187,10.5075888 3.17548454,10.4998204 L2.50174642,10.2044112 C1.83656849,9.91275528 1.53376906,9.1370882 1.82542496,8.47191028 C1.95798823,8.169574 2.19941014,7.92815209 2.50174642,7.79558882 L3.17548454,7.50017959 C3.42838489,7.38929215 3.5435091,7.09438387 3.43262166,6.84148352 C3.42485326,6.8237662 3.41606316,6.80651466 3.40629569,6.78981591 L3.03486729,6.15481149 C2.66815808,5.52787513 2.87911386,4.72236625 3.50605022,4.35565704 C3.79100496,4.18898059 4.12822362,4.1355704 4.45073754,4.20603327 L5.16944033,4.36305551 C5.43921901,4.42199678 5.70569919,4.25107929 5.76464046,3.9813006 C5.76876968,3.96240084 5.77179854,3.94327736 5.77371176,3.92402662 L5.84646611,3.19197711 C5.91829607,2.46922867 6.56242913,1.941555 7.28517756,2.01338496 C7.61368075,2.04603307 7.9178901,2.20103548 8.13739231,2.44761006 L8.62653971,2.99708662 C8.81015045,3.20334304 9.12620022,3.221701 9.33245664,3.03809027 C9.34690625,3.02522714 9.36059715,3.01153624 9.37346029,2.99708662 L9.86260769,2.44761006 C10.3455402,1.90511489 11.1768136,1.85682983 11.7193088,2.33976236 C11.9658834,2.55926457 12.1208858,2.86347391 12.1535339,3.19197711 L12.2262882,3.92402662 C12.253598,4.19881524 12.4984971,4.39943654 12.7732857,4.37212682 C12.7925364,4.3702136 12.8116599,4.36718473 12.8305597,4.36305551 L13.5492625,4.20603327 C14.2588337,4.05100607 14.9597293,4.50055288 15.1147565,5.21012416 C15.1852194,5.53263808 15.1318092,5.86985675 14.9651327,6.15481149 L14.5937043,6.78981591 C14.4542816,7.02817683 14.5344869,7.33443095 14.7728478,7.47385363 C14.7895466,7.4836211 14.8067981,7.4924112 14.8245155,7.50017959 L15.4982536,7.79558882 C16.1634315,8.08724472 16.4662309,8.8629118 16.174575,9.52808972 C16.0420118,9.830426 15.8005899,10.0718479 15.4982536,10.2044112 L14.8245155,10.4998204 C14.5716151,10.6107079 14.4564909,10.9056161 14.5673783,11.1585165 C14.5751467,11.1762338 14.5839368,11.1934853 14.5937043,11.2101841 L14.9651327,11.8451885 C15.3318419,12.4721249 15.1208861,13.2776338 14.4939498,13.644343 C14.208995,13.8110194 13.8717764,13.8644296 13.5492625,13.7939667 L12.8305597,13.6369445 C12.560781,13.5780032 12.2943008,13.7489207 12.2353595,14.0186994 C12.2312303,14.0375992 12.2282015,14.0567226 12.2262882,14.0759734 L12.1535339,14.8080229 C12.0817039,15.5307713 11.4375709,16.058445 10.7148224,15.986615 C10.3863192,15.9539669 10.0821099,15.7989645 9.86260769,15.5523899 L9.37346029,15.0029134 C9.18984955,14.796657 8.87379978,14.778299 8.66754336,14.9619097 C8.65309375,14.9747729 8.63940285,14.9884638 8.62653971,15.0029134 L8.13739231,15.5523899 Z" id="Star"></path>
            <path d="M9,12 C7.34314575,12 6,10.6568542 6,9 C6,7.34314575 7.34314575,6 9,6 C10.6568542,6 12,7.34314575 12,9 C12,10.6568542 10.6568542,12 9,12 Z M9,11 C10.1045695,11 11,10.1045695 11,9 C11,7.8954305 10.1045695,7 9,7 C7.8954305,7 7,7.8954305 7,9 C7,10.1045695 7.8954305,11 9,11 Z" id="Oval-3"></path>
        </g>
    </g>
</svg>

<svg width="18" height="18" viewBox="0 0 18 18" xmlns="http://www.w3.org/2000/svg"><title>settings-gear</title><g fill-rule="nonzero"><path d="M8.003 14.215a1.5 1.5 0 0 1 2.117.123l.49.55a.315.315 0 0 0 .548-.179l.073-.732a1.5 1.5 0 0 1 1.813-1.317l.719.157a.315.315 0 0 0 .339-.467l-.371-.635a1.5 1.5 0 0 1 .692-2.131l.674-.295a.315.315 0 0 0 0-.578l-.674-.295a1.5 1.5 0 0 1-.692-2.131l.371-.635a.315.315 0 0 0-.34-.467l-.718.157a1.5 1.5 0 0 1-1.813-1.317l-.073-.732a.315.315 0 0 0-.548-.178l-.49.549a1.5 1.5 0 0 1-2.24 0l-.49-.55a.315.315 0 0 0-.548.179l-.073.732A1.5 1.5 0 0 1 4.956 5.34l-.719-.157a.315.315 0 0 0-.339.467l.371.635a1.5 1.5 0 0 1-.692 2.131l-.674.295a.315.315 0 0 0 0 .578l.674.295a1.5 1.5 0 0 1 .692 2.131l-.371.635a.315.315 0 0 0 .34.467l.718-.157a1.5 1.5 0 0 1 1.813 1.317l.073.732a.315.315 0 0 0 .548.178l.49-.549a1.5 1.5 0 0 1 .123-.123zm.134 1.337a1.315 1.315 0 0 1-2.29-.744l-.073-.732a.5.5 0 0 0-.605-.44l-.718.158a1.315 1.315 0 0 1-1.416-1.949l.371-.635a.5.5 0 0 0-.23-.71l-.674-.296a1.315 1.315 0 0 1 0-2.408l.673-.296a.5.5 0 0 0 .231-.71l-.371-.635A1.315 1.315 0 0 1 4.45 4.206l.718.157a.5.5 0 0 0 .605-.439l.072-.732a1.315 1.315 0 0 1 2.291-.744l.49.55a.5.5 0 0 0 .746 0l.49-.55a1.315 1.315 0 0 1 2.29.744l.073.732a.5.5 0 0 0 .605.44l.718-.158a1.315 1.315 0 0 1 1.416 1.949l-.371.635a.5.5 0 0 0 .23.71l.674.296a1.315 1.315 0 0 1 0 2.408l-.673.296a.5.5 0 0 0-.231.71l.371.635a1.315 1.315 0 0 1-1.416 1.949l-.718-.157a.5.5 0 0 0-.605.439l-.072.732a1.315 1.315 0 0 1-2.291.744l-.49-.55a.5.5 0 0 0-.746 0l-.49.55z"/><path d="M9 12a3 3 0 1 1 0-6 3 3 0 0 1 0 6zm0-1a2 2 0 1 0 0-4 2 2 0 0 0 0 4z"/></g></svg>
